boxicons/svg/solid/bxs-arrow-from-left.svg

<svg xmlns="http://www.w3.org/2000/svg" width="24" height="24" viewBox="0 0 24 24"><path d="M4 6h2v12H4zm10 5H8v2h6v5l6-6-6-6z"/></svg>

<svg xmlns="http://www.w3.org/2000/svg" width="24" height="24" viewBox="0 0 24 24"><path d="M4 6H6V18H4zM14 11L8 11 8 13 14 13 14 18 20 12 14 6z"/></svg>
